public/shapes/characters/496.svg

<?xml version="1.0" encoding="UTF-8"?>
<svg width="83.1px" height="143.65px" version="1.1" xmlns="http://www.w3.org/2000/svg" xmlns:cc="http://creativecommons.org/ns#" xmlns:dc="http://purl.org/dc/elements/1.1/" xmlns:rdf="http://www.w3.org/1999/02/22-rdf-syntax-ns#">
 <metadata>
  <rdf:RDF>
   <cc:Work rdf:about="">
    <dc:format>image/svg+xml</dc:format>
    <dc:type rdf:resource="http://purl.org/dc/dcmitype/StillImage"/>
    <dc:title/>
   </cc:Work>
  </rdf:RDF>
 </metadata>
 <path d="m6.422 141.79 68.952 0.676 6.253-14.196-6.084-22.815-4.732-4.394 4.732-13.858-9.093-22.104 0.305-18.456-10.14-12.168-27.378-1.014-12.337 11.83-0.507 14.365 1.8875 6.2713-8.6475 14.178 1.117 21.594-8.553 18.966z" fill="#fff"/>
 <g transform="translate(41.55 71.8)" fill-rule="evenodd">
  <g>
   <path d="m-6.9-6.3v-9.65l-25.55 6 25.55 3.65m11.25-24.35q-9.8-2.45-14.6-6.2-6.1 2.55-9.8 7.55-3.8 5.15-3.8 11.25 0 1.8 0.55 3.9l4.95-1.15q-1.15-1.55-1.15-4.55 0-2.2 0.75-3.8 0.7-1.55 1.75-1.55 1 0 1.75 1.55 0.7 1.6 0.7 3.8t-0.75 3.8l9.15-2.15h0.4q1.1 0 1.85 2.05t0.75 4.95q0 2.8-0.7 4.85-0.75 2-1.75 2.15h-0.15l-0.3 0.05-12.9-1.85-1.7 1.1q-4.95 3.85-7.65 9.05-2.85 5.4-2.85 11.35 0 6.55 5 14.2h-0.05l0.45 1.05-0.05 0.05q-5.25 4.55-8.3 10.55-3.1 6.15-3.35 13.05v1.25q0 8.4 4.2 12.15h66q2.45-1.85 3.7-5.95 1.05-3.4 1.05-7.5 0-6.9-2.65-12.9-2.65-5.9-7.5-10.3h-8.2l-0.65-0.25q-0.25-0.25-0.25-0.65 0-0.35 0.25-0.65 0.3-0.25 0.65-0.25h7.85l-0.05-0.05q4.3-6.35 4.3-13.8 0-5.9-2.8-11.2-2.65-5.15-7.5-9h-5.05q-0.45 0-0.75-0.3-0.35-0.35-0.35-0.8t0.35-0.75q0.3-0.35 0.75-0.35h4.3q3.7-5.1 3.7-11.15 0-5.95-3.65-11.05-6.1 1.05-15.9-1.55m-15.4-31.45q-0.45 0.25-0.55 0.7l-2.55 9.75 0.1 0.85 0.7 0.5 3.2 0.85 3.05-11.95-3.1-0.8-0.85 0.1m19.15 0.35-0.8 0.55q-0.3 0.4-0.2 0.95 0.1 0.5 0.55 0.8l0.95 0.2q0.5-0.1 0.8-0.55t0.2-0.95q-0.1-0.55-0.55-0.8l-0.95-0.2m3.05 2.05q-0.15 0.4 0 0.8l0.6 0.55q1.2 0.6 4.2 1.25 4.8 1.05 9.15 0.6l-5.2 18.45-0.05 0.25q0 0.8 0.75 1.05 1 0.25 1.35-0.75l5.65-20q0.15-0.5-0.25-1-0.45-0.45-1-0.3l-9.45-0.25-4.35-1.25h-0.8l-0.6 0.6m-29.25 11.25q-1.2-2.05-0.6-4.4l2.55-9.75q0.65-2.35 2.75-3.55 2.05-1.25 4.4-0.6l3.1 0.8 0.9-3.55q0.55-2.15 6.25-2.3t13.2 1.8q7.5 1.9 12.45 4.8 4.9 2.85 4.35 5l-7.45 29.05q4.15 5.95 4.15 13.1 0 6-3.05 11.35 4.9 4.35 7.6 10 2.8 5.85 2.8 12.2 0 7.35-3.7 14.05 4.8 4.85 7.35 11.1 2.6 6.4 2.6 13.7 0 4.25-1.05 8.1-1.75 6.3-5.9 9.05l-0.55 0.35h-68.8l-0.55-0.4q-6.65-5.2-6.2-17.2 0.25-6.95 3.1-13.3 2.75-6.1 7.6-11.05-4.4-7.8-4.4-14.4 0-6.4 2.85-12.25 2.7-5.7 7.65-10.05l-13.3-1.9q-0.85-0.1-0.85-0.95-0.1-0.8 0.75-1l10.9-2.55q-0.7-2.55-0.7-4.85 0-7.15 4.3-13.2 4.15-5.9 11.1-9.05l1.2-4.6-3.25-0.85q-2.3-0.6-3.55-2.7"/>
   <path d="m8.15-12.95q-1.15 0-2-1.8-0.8-1.8-0.8-4.35 0-2.5 0.8-4.3 0.85-1.8 2-1.8t1.95 1.8q0.85 1.8 0.85 4.3 0 2.55-0.85 4.35-0.8 1.8-1.95 1.8"/>
   <path d="m-11.1 14.6q-1.1 0-1.85-1.15-0.8-1.15-0.8-2.75 0-1.65 0.8-2.8 0.75-1.15 1.85-1.15t1.9 1.15q0.75 1.15 0.75 2.8 0 1.6-0.75 2.75-0.8 1.15-1.9 1.15"/>
   <path d="m-12.75 44.85q1.6 0 2.7 1.65 1.15 1.7 1.15 4.05t-1.15 4.05q-1.1 1.65-2.7 1.65t-2.75-1.65q-1.1-1.7-1.1-4.05t1.1-4.05q1.15-1.65 2.75-1.65"/>
   <path d="m-11.65 33q-1.3 0-2.25-1.4t-0.95-3.35q0-2 0.95-3.4t2.25-1.4q1.35 0 2.3 1.4t0.95 3.4q0 1.95-0.95 3.35t-2.3 1.4"/>
  </g>
  <path d="m11.75-58.35-0.6-0.55q-0.15-0.4 0-0.8l0.6-0.6h0.8l4.35 1.25 9.45 0.25q0.55-0.15 1 0.3 0.4 0.5 0.25 1l-5.65 20q-0.35 1-1.35 0.75-0.75-0.25-0.75-1.05l0.05-0.25 5.2-18.45q-4.35 0.45-9.15-0.6-3-0.65-4.2-1.25" fill="#fff"/>
  <path d="m8.6-59.25-0.95-0.2q-0.45-0.3-0.55-0.8-0.1-0.55 0.2-0.95l0.8-0.55 0.95 0.2q0.45 0.25 0.55 0.8 0.1 0.5-0.2 0.95t-0.8 0.55" fill="#fff"/>
  <path d="m-6.9-15.95v9.65l-25.55-3.65 25.55-6"/>
 </g>
</svg>

<?xml version="1.0" encoding="UTF-8" standalone="no"?>
<svg xmlns:xlink="http://www.w3.org/1999/xlink" height="143.65px" width="83.1px" xmlns="http://www.w3.org/2000/svg">
  <g transform="matrix(1.0, 0.0, 0.0, 1.0, 41.55, 71.8)">
    <path d="M-6.9 -6.3 L-6.9 -15.95 -32.45 -9.95 -6.9 -6.3 M4.35 -30.65 Q-5.45 -33.1 -10.25 -36.85 -16.35 -34.3 -20.05 -29.3 -23.85 -24.15 -23.85 -18.05 -23.85 -16.25 -23.3 -14.15 L-18.35 -15.3 Q-19.5 -16.85 -19.5 -19.85 -19.5 -22.05 -18.75 -23.65 -18.05 -25.2 -17.0 -25.2 -16.0 -25.2 -15.25 -23.65 -14.55 -22.05 -14.55 -19.85 -14.55 -17.65 -15.3 -16.05 L-6.15 -18.2 -5.75 -18.2 Q-4.65 -18.2 -3.9 -16.15 -3.15 -14.1 -3.15 -11.2 -3.15 -8.4 -3.85 -6.35 -4.6 -4.35 -5.6 -4.2 L-5.75 -4.2 -6.05 -4.15 -18.95 -6.0 -20.65 -4.9 Q-25.6 -1.05 -28.3 4.15 -31.15 9.55 -31.15 15.5 -31.15 22.05 -26.15 29.7 L-26.2 29.7 -25.75 30.75 -25.8 30.8 Q-31.05 35.35 -34.1 41.35 -37.2 47.5 -37.45 54.4 L-37.45 55.65 Q-37.45 64.05 -33.25 67.8 L32.75 67.8 Q35.2 65.95 36.45 61.85 37.5 58.45 37.5 54.35 37.5 47.45 34.85 41.45 32.2 35.55 27.35 31.15 L19.15 31.15 18.5 30.9 Q18.25 30.65 18.25 30.25 18.25 29.9 18.5 29.6 18.8 29.35 19.15 29.35 L27.0 29.35 26.95 29.3 Q31.25 22.95 31.25 15.5 31.25 9.6 28.45 4.3 25.8 -0.85 20.95 -4.7 L15.9 -4.7 Q15.45 -4.7 15.15 -5.0 14.8 -5.35 14.8 -5.8 14.8 -6.25 15.15 -6.55 15.45 -6.9 15.9 -6.9 L20.2 -6.9 Q23.9 -12.0 23.9 -18.05 23.9 -24.0 20.25 -29.1 14.15 -28.05 4.35 -30.65 M-11.05 -62.1 Q-11.5 -61.85 -11.6 -61.4 L-14.15 -51.65 -14.05 -50.8 -13.35 -50.3 -10.15 -49.45 -7.1 -61.4 -10.2 -62.2 -11.05 -62.1 M8.1 -61.75 L7.3 -61.2 Q7.0 -60.8 7.1 -60.25 7.2 -59.75 7.65 -59.45 L8.6 -59.25 Q9.1 -59.35 9.4 -59.8 9.7 -60.25 9.6 -60.75 9.5 -61.3 9.05 -61.55 L8.1 -61.75 M11.15 -59.7 Q11.0 -59.3 11.15 -58.9 L11.75 -58.35 Q12.95 -57.75 15.95 -57.1 20.75 -56.05 25.1 -56.5 L19.9 -38.05 19.85 -37.8 Q19.85 -37.0 20.6 -36.75 21.6 -36.5 21.95 -37.5 L27.6 -57.5 Q27.75 -58.0 27.35 -58.5 26.9 -58.95 26.35 -58.8 L16.9 -59.05 12.55 -60.3 11.75 -60.3 11.15 -59.7 M-18.1 -48.45 Q-19.3 -50.5 -18.7 -52.85 L-16.15 -62.6 Q-15.5 -64.95 -13.4 -66.15 -11.35 -67.4 -9.0 -66.75 L-5.9 -65.95 -5.0 -69.5 Q-4.45 -71.65 1.25 -71.8 6.95 -71.95 14.45 -70.0 21.95 -68.1 26.9 -65.2 31.8 -62.35 31.25 -60.2 L23.8 -31.15 Q27.95 -25.2 27.95 -18.05 27.95 -12.05 24.9 -6.7 29.8 -2.35 32.5 3.3 35.3 9.15 35.3 15.5 35.3 22.85 31.6 29.55 36.4 34.4 38.95 40.65 41.55 47.05 41.55 54.35 41.55 58.6 40.5 62.45 38.75 68.75 34.6 71.5 L34.05 71.85 -34.75 71.85 -35.3 71.45 Q-41.95 66.25 -41.5 54.25 -41.25 47.3 -38.4 40.95 -35.65 34.85 -30.8 29.9 -35.2 22.1 -35.2 15.5 -35.2 9.1 -32.35 3.25 -29.65 -2.45 -24.7 -6.8 L-38.0 -8.7 Q-38.85 -8.8 -38.85 -9.65 -38.95 -10.45 -38.1 -10.65 L-27.2 -13.2 Q-27.9 -15.75 -27.9 -18.05 -27.9 -25.2 -23.6 -31.25 -19.45 -37.15 -12.5 -40.3 L-11.3 -44.9 -14.55 -45.75 Q-16.85 -46.35 -18.1 -48.45" fill="#000000" fill-rule="evenodd" stroke="none"/>
    <path d="M8.15 -12.95 Q7.0 -12.95 6.15 -14.75 5.35 -16.55 5.35 -19.1 5.35 -21.6 6.15 -23.4 7.0 -25.2 8.15 -25.2 9.3 -25.2 10.1 -23.4 10.95 -21.6 10.95 -19.1 10.95 -16.55 10.1 -14.75 9.3 -12.95 8.15 -12.95" fill="#000000" fill-rule="evenodd" stroke="none"/>
    <path d="M-11.1 14.6 Q-12.2 14.6 -12.95 13.45 -13.75 12.3 -13.75 10.7 -13.75 9.05 -12.95 7.9 -12.2 6.75 -11.1 6.75 -10.0 6.75 -9.2 7.9 -8.45 9.05 -8.45 10.7 -8.45 12.3 -9.2 13.45 -10.0 14.6 -11.1 14.6" fill="#000000" fill-rule="evenodd" stroke="none"/>
    <path d="M-12.75 44.85 Q-11.15 44.85 -10.05 46.5 -8.9 48.2 -8.9 50.55 -8.9 52.9 -10.05 54.6 -11.15 56.25 -12.75 56.25 -14.35 56.25 -15.5 54.6 -16.6 52.9 -16.6 50.55 -16.6 48.2 -15.5 46.5 -14.35 44.85 -12.75 44.85" fill="#000000" fill-rule="evenodd" stroke="none"/>
    <path d="M-11.65 33.0 Q-12.95 33.0 -13.9 31.6 -14.85 30.2 -14.85 28.25 -14.85 26.25 -13.9 24.85 -12.95 23.45 -11.65 23.45 -10.3 23.45 -9.35 24.85 -8.4 26.25 -8.4 28.25 -8.4 30.2 -9.35 31.6 -10.3 33.0 -11.65 33.0" fill="#000000" fill-rule="evenodd" stroke="none"/>
    <path d="M11.75 -58.35 L11.15 -58.9 Q11.0 -59.3 11.15 -59.7 L11.75 -60.3 12.55 -60.3 16.9 -59.05 26.35 -58.8 Q26.9 -58.95 27.35 -58.5 27.75 -58.0 27.6 -57.5 L21.95 -37.5 Q21.6 -36.5 20.6 -36.75 19.85 -37.0 19.85 -37.8 L19.9 -38.05 25.1 -56.5 Q20.75 -56.05 15.95 -57.1 12.95 -57.75 11.75 -58.35" fill="#ffffff" fill-rule="evenodd" stroke="none"/>
    <path d="M8.6 -59.25 L7.65 -59.45 Q7.2 -59.75 7.1 -60.25 7.0 -60.8 7.3 -61.2 L8.1 -61.75 9.05 -61.55 Q9.5 -61.3 9.6 -60.75 9.7 -60.25 9.4 -59.8 9.1 -59.35 8.6 -59.25" fill="#ffffff" fill-rule="evenodd" stroke="none"/>
    <path d="M-6.9 -15.95 L-6.9 -6.3 -32.45 -9.95 -6.9 -15.95" fill="#000000" fill-rule="evenodd" stroke="none"/>
  </g>
</svg>
